X: 1
T: Gandagana
O: Georgian
N: Transposed very low
Z: https://musescore.com/user/72727861/scores/12783094
M: 6/4
L: 1/8
Q:1/4=150
K:G
[|B,F2 E>FD E>DE D ^C2|B,E2 B,ED E>DE D ^C2|
B,F2 E>FD E>DE D^C2|B,E2 B,ED E>DE D^C2|
B,F2 B,FB, F>ED ED^C|B,F2 B,FB, F>ED E3|
B,E2 B,ED E>DE D^C2|B,F2 B,FB, F>ED E3|
z3/ F,/F z F,D z3/ F,/D z G,D|z3/ F,/D z F,D z3/ F,/D z G,D|
z3/ F,/F z F,D z3/ F,/D z G,D|z3/ F,/D z F,D z3/ F,/D z G,D||
[K:F]
z3/ D/ E FF2 GG2 FF2|(G>F G) FF2 (G>D) E D D2|
z3/ D/ E F F2 G G2 F F2|G3/ (F/G) F F2 (E>D) E D D2|
z3/ A/A A A2 B B2 A3|B>AG F A2 G G2 A3|
z3/ A/A A A2 B B2 A3|B>AG F A2 G G2 A3|
z3/ D/ E F F2 G G2 F3|G3/ (F/E) D F2 E E2 F3|
z3/ D/ E F F2 G G2 F F2|(G>F) E D F2 E E2 D3|
z3/ F/G A A2 B B2 A3|B>AG F A2 G G2 A3|
z3/ F/G A A2 B B2 A3|B>AG F A2 G G2 A3|
z3/ A/ A A A2 AA2 G(FE)|(F>B,) F F F2 F F2 G G2|
(F>B,) F F F2 FF2 GG2|F3/ B,/ A A A2 F F2 G3|
z3/ D/ E F F2 (F>E) F F3|z3/ D/ E F F2 (F>E) F E3|
B,2 A G G2 F2 G F E2| z3/ D/ E F F2 (F>E) F E3|
z2 D2 E2 F3 G3| z2 D2 E2 F3 G3|z2 F2 G2 A3 B3|B3 BAB A3 G3|
z3/ A/ A A (AG) A3/ (G/A) G F2|G2 A B B2 B3/ (A/B) A G2|
A2 A A A2 B2 A G F2|G2 A B B2 B3/ (A/B) A G2|
z3/ A/A AAG A>AA G F2|G2 A B B2 B>AB A G2|
A2 A A A2 B2 A G F2|G2 A B B2 B>AB A G2|
A,2 A A,AA, A>GA G F2| G2 A B B2 B>AB A G2|
A2 A A A2 B2 A G F2|G2 A B B2 B>AB A G2|
z2 A A,AA, A>GA G F2|G2 A B B2 B>AB A G2|
A2 A A A2 B2 A G F2|G2 A B B2 B>AB A G2|A6- A6|]

